src/static/icons/check.svg

<svg width="24" height="24" viewBox="0 0 24 24" xmlns="http://www.w3.org/2000/svg">
<path fill-rule="evenodd" clip-rule="evenodd" d="M12 22.5C17.799 22.5 22.5 17.799 22.5 12C22.5 6.20101 17.799 1.5 12 1.5C6.20101 1.5 1.5 6.20101 1.5 12C1.5 17.799 6.20101 22.5 12 22.5ZM12 24C18.6274 24 24 18.6274 24 12C24 5.37258 18.6274 0 12 0C5.37258 0 0 5.37258 0 12C0 18.6274 5.37258 24 12 24Z"/>
<path fill-rule="evenodd" clip-rule="evenodd" d="M18.5529 9.09331C18.8328 9.39865 18.8122 9.87307 18.5069 10.153L10.7775 17.2382L6.66974 13.1304C6.37685 12.8375 6.37685 12.3627 6.66974 12.0698C6.96264 11.7769 7.43751 11.7769 7.7304 12.0698L10.8226 15.162L17.4933 9.04724C17.7986 8.76734 18.273 8.78797 18.5529 9.09331Z"/>
</svg>

<svg width="24" height="24" xmlns="http://www.w3.org/2000/svg"><path fill-rule="evenodd" clip-rule="evenodd" d="M12 22.5c5.799 0 10.5-4.701 10.5-10.5S17.799 1.5 12 1.5 1.5 6.201 1.5 12 6.201 22.5 12 22.5zm0 1.5c6.627 0 12-5.373 12-12S18.627 0 12 0 0 5.373 0 12s5.373 12 12 12z"/><path fill-rule="evenodd" clip-rule="evenodd" d="M18.553 9.093a.75.75 0 0 1-.046 1.06l-7.73 7.085L6.67 13.13a.75.75 0 1 1 1.06-1.06l3.093 3.092 6.67-6.115a.75.75 0 0 1 1.06.046z"/></svg>
